X:1
T:Brig o' Feugh
R:reel
C:Peter Milne
D:Joe Cormier, The Dances Down Home
Z:Paul Stewart Cranford (P.S.C.), <http://www.cranfordpub.com>
L:1/8
Q:333
M:C|
K:D
A|:d2 fd c2 ec|d2 fd gecA|d2 fd c2 ec|1dABG FDDc:|2dABG FDD|]
||B|ADFA DAFA|BEGB EBGB|ADFA DAFA|BdcB AFFb|
adfa dafa|begb ebgb|afdf gecA|dABG FDD|]
